build/img/weight-back.svg

<svg width="124" height="56" viewBox="0 0 124 56" fill="none" xmlns="http://www.w3.org/2000/svg">
<path fill-rule="evenodd" clip-rule="evenodd" d="M121 1H3C1.89543 1 1 1.89543 1 3V53C1 54.1046 1.89543 55 3 55H18V56H3C1.34314 56 0 54.6569 0 53V3C0 1.34314 1.34315 0 3 0H121C122.657 0 124 1.34315 124 3V53C124 54.6569 122.657 56 121 56H105V55H121C122.105 55 123 54.1046 123 53V3C123 1.89543 122.105 1 121 1Z" fill="#CDCDCD"/>
</svg>

<svg width="124" height="56" fill="none" xmlns="http://www.w3.org/2000/svg"><path fill-rule="evenodd" clip-rule="evenodd" d="M121 1H3a2 2 0 00-2 2v50a2 2 0 002 2h15v1H3a3 3 0 01-3-3V3a3 3 0 013-3h118a3 3 0 013 3v50a3 3 0 01-3 3h-16v-1h16a2 2 0 002-2V3a2 2 0 00-2-2z" fill="#CDCDCD"/></svg>
